symbols/web/extension_off/materialsymbolsrounded/extension_off_wght300_40px.svg

<svg xmlns="http://www.w3.org/2000/svg" height="40" width="40"><path d="m32.625 28.458-2.083-2.083v-3.292h1.333q.917-.041 1.521-.708.604-.667.604-1.583 0-.875-.604-1.542t-1.521-.708h-1.333V9.458h-9V8.083q-.042-.916-.709-1.52-.666-.605-1.583-.605-.875 0-1.542.605-.666.604-.708 1.52v1.375h-3.375l-2.083-2.083h3.416q.417-1.542 1.584-2.542 1.166-1 2.708-1 1.583 0 2.75 1t1.583 2.542h6.959q.833 0 1.458.625t.625 1.458v6.959q1.542.416 2.5 1.625.958 1.208.958 2.75 0 1.583-.958 2.708-.958 1.125-2.5 1.583ZM22.125 18Zm10.583 17.667L4.292 7.292q-.292-.334-.313-.75-.021-.417.313-.75.333-.334.75-.334.416 0 .75.334l28.416 28.416q.292.334.313.75.021.417-.313.709-.333.333-.75.333-.416 0-.75-.333ZM18.5 21.5ZM7.917 34.167q-.834 0-1.459-.625-.625-.625-.625-1.459v-6.958q1.625-.292 2.771-1.5t1.146-2.833q0-1.667-1.146-2.854-1.146-1.188-2.771-1.521V9.292q0-.417.167-.792.167-.375.458-.667l1.459 1.459v5.583q1.791.75 2.854 2.354 1.062 1.604 1.062 3.563 0 1.916-1.062 3.52-1.063 1.605-2.854 2.355v5.416h5.416q.75-1.791 2.354-2.854 1.605-1.062 3.521-1.062 1.917 0 3.542 1.062 1.625 1.063 2.375 2.854h5.583l1.459 1.459q-.292.291-.667.458-.375.167-.792.167h-7.125q-.333-1.625-1.521-2.771-1.187-1.146-2.854-1.146-1.625 0-2.833 1.146-1.208 1.146-1.5 2.771Z"/></svg>

<svg xmlns="http://www.w3.org/2000/svg" height="40" width="40"><path d="M32.625 28.458 30.542 26.375V23.083H31.875Q32.792 23.042 33.396 22.375Q34 21.708 34 20.792Q34 19.917 33.396 19.25Q32.792 18.583 31.875 18.542H30.542V9.458H21.542V8.083Q21.5 7.167 20.833 6.563Q20.167 5.958 19.25 5.958Q18.375 5.958 17.708 6.563Q17.042 7.167 17 8.083V9.458H13.625L11.542 7.375H14.958Q15.375 5.833 16.542 4.833Q17.708 3.833 19.25 3.833Q20.833 3.833 22 4.833Q23.167 5.833 23.583 7.375H30.542Q31.375 7.375 32 8Q32.625 8.625 32.625 9.458V16.417Q34.167 16.833 35.125 18.042Q36.083 19.25 36.083 20.792Q36.083 22.375 35.125 23.5Q34.167 24.625 32.625 25.083ZM22.125 18Q22.125 18 22.125 18Q22.125 18 22.125 18Q22.125 18 22.125 18Q22.125 18 22.125 18Q22.125 18 22.125 18Q22.125 18 22.125 18Q22.125 18 22.125 18Q22.125 18 22.125 18ZM32.708 35.667 4.292 7.292Q4 6.958 3.979 6.542Q3.958 6.125 4.292 5.792Q4.625 5.458 5.042 5.458Q5.458 5.458 5.792 5.792L34.208 34.208Q34.5 34.542 34.521 34.958Q34.542 35.375 34.208 35.667Q33.875 36 33.458 36Q33.042 36 32.708 35.667ZM18.5 21.5Q18.5 21.5 18.5 21.5Q18.5 21.5 18.5 21.5Q18.5 21.5 18.5 21.5Q18.5 21.5 18.5 21.5Q18.5 21.5 18.5 21.5Q18.5 21.5 18.5 21.5Q18.5 21.5 18.5 21.5Q18.5 21.5 18.5 21.5ZM7.917 34.167Q7.083 34.167 6.458 33.542Q5.833 32.917 5.833 32.083V25.125Q7.458 24.833 8.604 23.625Q9.75 22.417 9.75 20.792Q9.75 19.125 8.604 17.938Q7.458 16.75 5.833 16.417V9.292Q5.833 8.875 6 8.5Q6.167 8.125 6.458 7.833L7.917 9.292V14.875Q9.708 15.625 10.771 17.229Q11.833 18.833 11.833 20.792Q11.833 22.708 10.771 24.312Q9.708 25.917 7.917 26.667V32.083H13.333Q14.083 30.292 15.687 29.229Q17.292 28.167 19.208 28.167Q21.125 28.167 22.75 29.229Q24.375 30.292 25.125 32.083H30.708L32.167 33.542Q31.875 33.833 31.5 34Q31.125 34.167 30.708 34.167H23.583Q23.25 32.542 22.062 31.396Q20.875 30.25 19.208 30.25Q17.583 30.25 16.375 31.396Q15.167 32.542 14.875 34.167Z"/></svg>
